icons/svg/seamark/beacon_tower.svg

<?xml version="1.0" encoding="UTF-8" standalone="no"?>
<svg
   xmlns:dc="http://purl.org/dc/elements/1.1/"
   xmlns:cc="http://creativecommons.org/ns#"
   xmlns:rdf="http://www.w3.org/1999/02/22-rdf-syntax-ns#"
   xmlns:svg="http://www.w3.org/2000/svg"
   xmlns="http://www.w3.org/2000/svg"
   xmlns:sodipodi="http://sodipodi.sourceforge.net/DTD/sodipodi-0.dtd"
   xmlns:inkscape="http://www.inkscape.org/namespaces/inkscape"
   width="580"
   height="580"
   id="svg2"
   version="1.1"
   inkscape:version="0.48.4 r9939"
   sodipodi:docname="beacon_tower.svg">
  <defs
     id="defs13">
    <inkscape:path-effect
       effect="gears"
       id="path-effect3774"
       is_visible="true"
       teeth="6"
       phi="-1.2" />
    <inkscape:path-effect
       effect="bend_path"
       id="path-effect3772"
       is_visible="false"
       bendpath="m 95.790098,316.51174 c 144.429032,-206.42506 223.313032,-11.7428 339.548092,0"
       prop_scale="1.19"
       scale_y_rel="false"
       vertical="false"
       bendpath-nodetypes="cc" />
  </defs>
  <sodipodi:namedview
     pagecolor="#ffffff"
     bordercolor="#666666"
     borderopacity="1"
     objecttolerance="10"
     gridtolerance="10"
     guidetolerance="10"
     inkscape:pageopacity="0"
     inkscape:pageshadow="2"
     inkscape:window-width="1920"
     inkscape:window-height="1004"
     id="namedview11"
     showgrid="false"
     inkscape:zoom="1.1508772"
     inkscape:cx="435.24874"
     inkscape:cy="214.03012"
     inkscape:window-x="1680"
     inkscape:window-y="0"
     inkscape:window-maximized="1"
     inkscape:current-layer="svg2" />
  <metadata
     id="metadata2975">image/svg+xmlen<rdf:RDF>
  <cc:Work
     rdf:about="">
    <dc:format>image/svg+xml</dc:format>
    <dc:type
       rdf:resource="http://purl.org/dc/dcmitype/StillImage" />
    <dc:title />
  </cc:Work>
</rdf:RDF>
</metadata>
  <path
     style="opacity:0.42608696;color:#000000;fill:#acd8f3;fill-opacity:1;fill-rule:nonzero;stroke:#a35151;stroke-width:0;stroke-linecap:round;stroke-linejoin:miter;stroke-miterlimit:4;stroke-opacity:1;stroke-dashoffset:0;marker:none;visibility:visible;display:inline;overflow:visible;enable-background:accumulate"
     d="m 187.625,157.5 c -4.79901,-0.003 -9.57674,1.82538 -13.14778,5.03134 -3.57105,3.20595 -5.90207,7.75961 -6.41472,12.53116 l -33.3125,309.46875 -28.78125,0 c -5.14551,0.002 -10.25867,2.12073 -13.897097,5.75915 -3.638427,3.63843 -5.757391,8.75159 -5.759153,13.8971 l 0,25 c 0.0018,5.14551 2.120726,10.25867 5.759153,13.8971 3.638427,3.63842 8.751587,5.75739 13.897097,5.75915 l 122.65625,0 c 11.13106,18.64527 31.34385,31.21875 54.4375,31.21875 23.09365,0 43.30644,-12.57348 54.4375,-31.21875 l 122.65625,0 c 5.14551,-0.002 10.25867,-2.12073 13.8971,-5.75915 3.63842,-3.63843 5.75739,-8.75159 5.75915,-13.8971 l 0,-25 c -0.002,-5.14551 -2.12073,-10.25867 -5.75915,-13.8971 -3.63843,-3.63842 -8.75159,-5.75739 -13.8971,-5.75915 l -29.5,0 -33.3125,-309.46875 c -0.51265,-4.77155 -2.84367,-9.32521 -6.41472,-12.53116 -3.57104,-3.20596 -8.34877,-5.03428 -13.14778,-5.03134 z"
     id="path3841"
     inkscape:connector-curvature="0"
     sodipodi:nodetypes="cscccsccsccsccsccscccscc" />
  <path
     style="color:#000000;fill:#bdbdbd;fill-opacity:1;fill-rule:nonzero;stroke:#a35151;stroke-width:0;stroke-linecap:round;stroke-linejoin:miter;stroke-miterlimit:4;stroke-opacity:1;stroke-dashoffset:0;marker:none;visibility:visible;display:inline;overflow:visible;enable-background:accumulate"
     d="m 208.23805,199.96198 149.01723,0 35.02119,312.23575 -218.14284,-1.39333 z"
     id="rect2987"
     inkscape:connector-curvature="0"
     sodipodi:nodetypes="ccccc" />
  <path
     style="color:#000000;fill:#000000;fill-opacity:1;stroke:none;stroke-width:0;marker:none;visibility:visible;display:inline;overflow:visible;enable-background:accumulate;opacity:0.77999998000000004;fill-rule:nonzero;stroke-linecap:round;stroke-linejoin:miter;stroke-miterlimit:4;stroke-opacity:1;stroke-dasharray:none;stroke-dashoffset:0"
     d="m 187.75,177.03125 -36.25,336.9375 262.65625,0 -36.25,-336.9375 z M 208.34375,200 l 148.96875,0 35.27489,315.88347 -218.59692,-3.37923 z"
     id="rect3122"
     inkscape:connector-curvature="0"
     sodipodi:nodetypes="cccccccccc" />
  <path
     style="fill:none;stroke:#000000;stroke-width:25;stroke-linecap:butt;stroke-linejoin:miter;stroke-miterlimit:4;stroke-opacity:1;stroke-dasharray:none"
     d="m 106.0882,516.57012 354.21851,0"
     id="path3759"
     inkscape:connector-curvature="0"
     sodipodi:nodetypes="cc" />
  <path
     sodipodi:type="arc"
     style="color:#000000;fill:#fefefe;fill-opacity:1;stroke:#000000;stroke-width:25;stroke-linecap:round;stroke-linejoin:round;stroke-miterlimit:10;stroke-opacity:1;stroke-dasharray:none;stroke-dashoffset:0;marker:none;visibility:visible;display:inline;overflow:visible;enable-background:accumulate"
     id="path3759-1"
     sodipodi:cx="210.27438"
     sodipodi:cy="76.036606"
     sodipodi:rx="40.838413"
     sodipodi:ry="40.838413"
     d="m 251.1128,76.036606 a 40.838413,40.838413 0 1 1 -81.67683,0 40.838413,40.838413 0 1 1 81.67683,0 z"
     transform="matrix(0.82289092,0,0,0.82289092,110.16458,453.8318)" />
</svg>

<svg width="580" height="580" viewBox="0 0 580 580" fill="none" xmlns="http://www.w3.org/2000/svg">
<g clip-path="url(#clip0)">
<path opacity="0.426087" d="M187.625 157.5C182.826 157.497 178.048 159.325 174.477 162.531C170.906 165.737 168.575 170.291 168.062 175.063L134.75 484.531H105.969C100.823 484.533 95.7101 486.652 92.0717 490.29C88.4332 493.929 86.3143 499.042 86.3125 504.188V529.188C86.3143 534.333 88.4332 539.446 92.0717 543.085C95.7101 546.723 100.823 548.842 105.969 548.844H228.625C239.756 567.489 259.969 580.062 283.062 580.062C306.156 580.062 326.369 567.489 337.5 548.844H460.156C465.302 548.842 470.415 546.723 474.053 543.085C477.692 539.446 479.811 534.333 479.812 529.188V504.188C479.81 499.042 477.692 493.929 474.053 490.29C470.415 486.652 465.302 484.533 460.156 484.531H430.656L397.344 175.063C396.831 170.291 394.5 165.737 390.929 162.531C387.358 159.325 382.58 157.497 377.781 157.5H187.625Z" fill="#ACD8F3"/>
<path d="M208.238 199.962H357.255L392.277 512.198L174.134 510.804L208.238 199.962Z" fill="#BDBDBD"/>
<path opacity="0.78" d="M187.75 177.031L151.5 513.969H414.156L377.906 177.031H187.75ZM208.344 200H357.312L392.587 515.883L173.99 512.504L208.344 200Z" fill="black"/>
<path d="M106.088 516.57H460.307" stroke="black" stroke-width="25"/>
<path d="M316.803 516.402C316.803 525.314 313.262 533.862 306.96 540.164C300.658 546.467 292.11 550.007 283.197 550.007C274.285 550.007 265.737 546.467 259.435 540.164C253.132 533.862 249.592 525.314 249.592 516.402C249.592 507.489 253.132 498.941 259.435 492.639C265.737 486.337 274.285 482.796 283.197 482.796C292.11 482.796 300.658 486.337 306.96 492.639C313.262 498.941 316.803 507.489 316.803 516.402V516.402Z" fill="#FEFEFE" stroke="black" stroke-width="20.5723" stroke-miterlimit="10" stroke-linecap="round" stroke-linejoin="round"/>
</g>
<defs>
<clipPath id="clip0">
<path d="M0 0H580V580H0V0Z" fill="white"/>
</clipPath>
</defs>
</svg>
